src/assets/txs/account-sets-gray.svg

<?xml version="1.0" encoding="UTF-8" standalone="no"?>
<svg
   xmlns:dc="http://purl.org/dc/elements/1.1/"
   xmlns:cc="http://creativecommons.org/ns#"
   xmlns:rdf="http://www.w3.org/1999/02/22-rdf-syntax-ns#"
   xmlns:svg="http://www.w3.org/2000/svg"
   xmlns="http://www.w3.org/2000/svg"
   xmlns:sodipodi="http://sodipodi.sourceforge.net/DTD/sodipodi-0.dtd"
   xmlns:inkscape="http://www.inkscape.org/namespaces/inkscape"
   width="19"
   height="18"
   viewBox="0 0 19 18"
   version="1.1"
   id="svg9"
   sodipodi:docname="account-sets-gray.svg"
   inkscape:version="0.92.4 (unknown)">
  <metadata
     id="metadata15">
    <rdf:RDF>
      <cc:Work
         rdf:about="">
        <dc:format>image/svg+xml</dc:format>
        <dc:type
           rdf:resource="http://purl.org/dc/dcmitype/StillImage" />
        <dc:title>book@1.5x</dc:title>
      </cc:Work>
    </rdf:RDF>
  </metadata>
  <defs
     id="defs13" />
  <sodipodi:namedview
     pagecolor="#ffffff"
     bordercolor="#666666"
     borderopacity="1"
     objecttolerance="10"
     gridtolerance="10"
     guidetolerance="10"
     inkscape:pageopacity="0"
     inkscape:pageshadow="2"
     inkscape:window-width="1397"
     inkscape:window-height="712"
     id="namedview11"
     showgrid="false"
     inkscape:zoom="16.857143"
     inkscape:cx="9.5"
     inkscape:cy="7"
     inkscape:window-x="2639"
     inkscape:window-y="181"
     inkscape:window-maximized="0"
     inkscape:current-layer="svg9" />
  <!-- Generator: Sketch 64 (93537) - https://sketch.com -->
  <title
     id="title2">book@1.5x</title>
  <desc
     id="desc4">Created with Sketch.</desc>
  <g
     id="wireframes"
     style="fill:none;fill-rule:evenodd;stroke:none;stroke-width:1"
     transform="matrix(1,0,0,1.1701146,-0.05932203,1.2964857)">
    <g
       id="01---live-transactions"
       transform="translate(-1332,-255)"
       style="fill:#b0bac2;fill-rule:nonzero">
      <path
         d="m 1348.8,255.2 h -14.4 c -0.88,0 -1.6,0.72 -1.6,1.6 v 10.4 c 0,0.88 0.72,1.6 1.6,1.6 h 14.4 c 0.88,0 1.6,-0.72 1.6,-1.6 v -10.4 c 0,-0.88 -0.72,-1.6 -1.6,-1.6 z m -14.4,12 v -10.4 h 6.4 v 10.4 z m 14.4,0 h -6.4 v -10.4 h 6.4 z m -5.6,-7.6 h 4.8 v 1.2 h -4.8 z m 0,2 h 4.8 v 1.2 h -4.8 z m 0,2 h 4.8 v 1.2 h -4.8 z"
         id="book"
         inkscape:connector-curvature="0" />
    </g>
  </g>
</svg>

<?xml version="1.0" encoding="UTF-8"?>
<svg width="19px" height="14px" viewBox="0 0 19 14" version="1.1" xmlns="http://www.w3.org/2000/svg" xmlns:xlink="http://www.w3.org/1999/xlink">
    <!-- Generator: Sketch 64 (93537) - https://sketch.com -->
    <title>book@1.5x</title>
    <desc>Created with Sketch.</desc>
    <g id="wireframes" stroke="none" stroke-width="1" fill="none" fill-rule="evenodd">
        <g id="01---live-transactions" transform="translate(-1332.000000, -255.000000)" fill="#B0BAC2" fill-rule="nonzero">
            <path d="M1348.8,255.2 L1334.4,255.2 C1333.52,255.2 1332.8,255.92 1332.8,256.8 L1332.8,267.2 C1332.8,268.08 1333.52,268.8 1334.4,268.8 L1348.8,268.8 C1349.68,268.8 1350.4,268.08 1350.4,267.2 L1350.4,256.8 C1350.4,255.92 1349.68,255.2 1348.8,255.2 Z M1334.4,267.2 L1334.4,256.8 L1340.8,256.8 L1340.8,267.2 L1334.4,267.2 Z M1348.8,267.2 L1342.4,267.2 L1342.4,256.8 L1348.8,256.8 L1348.8,267.2 Z M1343.2,259.6 L1348,259.6 L1348,260.8 L1343.2,260.8 L1343.2,259.6 Z M1343.2,261.6 L1348,261.6 L1348,262.8 L1343.2,262.8 L1343.2,261.6 Z M1343.2,263.6 L1348,263.6 L1348,264.8 L1343.2,264.8 L1343.2,263.6 Z" id="book"></path>
        </g>
    </g>
</svg>
